X: 21
T:Green Groves of Erin, The
M:C|
L:1/8
R:Reel
K:AMix
A2cA eAcA|~G3g gedB|A2cA eAcA|BGEF GABG|!
A2cA eAcA|"var."G2Bd gdBG|A2cA eAcA|1BGEF GABG:|2BGEF GABd|!
|:ea~a2 ea~a2|eg~g2 eg~g2|eaag ~a3g|egfa gedg|!
eaag bgag|edef ~g3e|dega bgag|1egfa gedg:|2egfa gedB|]!
